X:145
T:Crowley's Reel
M:4/4
L:1/8
R:reel
K:D
dB|AFAd B2dB|AD (3FED AD (3FED|AFAd BGBd|1 cdeg fddB:|2 cdeg fdde|
|:fdfa g2fg|eA (3cBA eA (3cBA|fdfa g2fg|1 afge fdde:|2 afge fdd2||
